X: 21
T:I Buried My Wife and Danced on Top of Her
M:6/8
L:1/8
S:session
Z:id:hn-jig-88
K:Dmix
DED F2G|AdB cAF|~G3 BAG|~F3 GED | DED F2G|AdB cAF|
~G3 BA|AFD D3:||:d2e fed|faf gfe|d2e fed|dcA dcA|
d2e fed|faf gfe| d2 A BAG|AFD D3:|
